client/src/assets/community/quote-start-dark.svg

<svg width="23" height="34" viewBox="0 0 23 34" fill="none" xmlns="http://www.w3.org/2000/svg">
<rect x="0.575195" y="19.543" width="8.80208" height="13.8712" fill="#394035"/>
<path d="M6.0024 22.0879L6.0024 18.4061C6.0024 15.2868 8.04785 11.622 10.4172 9.69584L13.6217 11.5879C12.3433 13.5993 11.4569 15.6958 11.4569 18.372V22.0879H6.0024ZM14.6104 22.0879V18.4061C14.6104 15.2868 16.6558 11.622 19.0251 9.69584L22.2297 11.5879C20.9513 13.5993 20.0649 15.6958 20.0649 18.372V22.0879H14.6104Z" fill="#8FF295"/>
</svg>

<svg xmlns="http://www.w3.org/2000/svg" fill="none" viewBox="0 0 23 34"><path fill="#394035" d="M.575 19.543h8.802v13.871H.575z"/><path fill="#8FF295" d="M6.002 22.088v-3.682c0-3.12 2.046-6.784 4.415-8.71l3.205 1.892c-1.279 2.011-2.165 4.108-2.165 6.784v3.716zm8.608 0v-3.682c0-3.12 2.046-6.784 4.415-8.71l3.205 1.892c-1.279 2.011-2.165 4.108-2.165 6.784v3.716z"/></svg>
